X:1
T:Маленькая прилюдия №7 (ми минор)
T:Prelude in e moll (From  Twelve  Little Preludes) 
T:J. S. Bach.
C:И. С. Бах.
%%score 1 2 ( 3 4 )
L:1/8
M:3/4
K:G
V:1 treble+8 nm="Блокфлейта" snm="Бл.фл."
V:2 treble+8 nm="Блокфлейта" snm="Бл.фл."
V:3 bass nm="Виолончель" snm="В-ч."
V:4 bass 
V:1
!<(! z E GB eB!<)! | cA FA ^DB |!>(! G2 E2 e2-!>)! |"_cresc." e2 ^d2 f2- | f2 e2 g2- | %5
!<(! g2 f2!>(! a2-!<)!!>)! |!f! a2 g2 =f2- |"_dim." f2 e4 | d6 | de!>(! PA3 G!>)! |!p! Gd BG g2 | %11
 z6 | z2 z f dB | ^g2 e2 g2 |!f! ae cA a2 | z6 | z6 | z6 | z2!<(! ^de f2!<)! | fB ed cB | %20
 (3ABc G/F/G/ F2 E/ |!p! E6 |] %22
V:2
!<(! z6!<)! | z6 |!>(! z2 z2 G2!>)! |"_cresc." F4 A2- | A2 G2 B2- |!<(! B2 A2!>(! c2!<)!!>)! | %6
!f! B6- |"_dim." B2 cB c2- | c2 BA GF | G2!>(! F4!>)! | z6 | z"_cresc." e ^ce Ag | f2 z z z2 | z6 | %14
 z6 | z f ^df Ba | g"_dim."e ce Ag | fd Bd Gf |!<(! e2 z2 A2-!<)! | A2 G3 G | FE E2 ^D2 | %21
!p! z ^G B4 |] %22
V:3
 [E,G,]6 | [E,A,]6 |!<(! [E,A,]E, G,B, EB,!<)! |"_cresc." CA, F,A, ^D,B, | G,E B,G, E,G, | %5
 A,B, CA, F,D, |!f! G,G,, B,,D, G,D, |"_dim." E,G, C,E, A,,C, | F,,D,, G,,B,, E,,G,, | %9
 C,,C, D,C, D,D,, |!p! G,,2 z B, G,E, |"_cresc." ^C2 A,2 C2 | DA, F,D, D2 | z B, ^G,B, E,D | %14
!f! C2 z C A,F, | ^D2 B,2 D2 |"_dim." E2 z A, CE | D2 z G, B,D |!<(! CA, F,A, ^D,F,!<)! | %19
 G,,E,, G,,B,, E,B,, | C,A,, B,,A,, B,,2 |!p! !thumb!E,,6 |] %22
V:4
 x6 | x6 | x6 | x6 | x6 | x6 | x6 | x6 | x6 | x6 | x6 | x6 | x6 | x6 | x6 | x6 | x6 | x6 | x6 | %19
 x6 | x6 | z2 z B,, E,2 |] %22

